Newaita/actions/24/insert-link.svg

<svg height="24" viewBox="0 0 24 24" width="24" xmlns="http://www.w3.org/2000/svg"><g fill="#424242"><path d="m7.9375 2.171875c-3.296875 0-5.953125 2.65625-5.953125 5.953125 0 3.300781 2.65625 5.953125 5.953125 5.953125h1.488281c.277344 0 .496094-.21875.496094-.496094v-.992187c0-.273438-.21875-.496094-.496094-.496094h-1.488281c-2.199219 0-3.96875-1.769531-3.96875-3.96875s1.769531-3.96875 3.96875-3.96875h1.488281c.277344 0 .496094-.222656.496094-.496094v-.992187c0-.273438-.21875-.496094-.496094-.496094zm6.449219 0c-.273438 0-.496094.222656-.496094.496094v.992187c0 .273438.222656.496094.496094.496094h1.488281c2.199219 0 3.96875 1.769531 3.96875 3.96875s-1.769531 3.96875-3.96875 3.96875h-1.488281c-.273438 0-.496094.222656-.496094.496094v.992187c0 .277344.222656.496094.496094.496094h1.488281c3.300781 0 5.957031-2.652344 5.957031-5.953125 0-3.296875-2.65625-5.953125-5.957031-5.953125zm0 0"/><path d="m8.433594 7.132812h6.945312c.277344 0 .496094.222657.496094.496094v.992188c0 .273437-.21875.496094-.496094.496094h-6.945312c-.273438 0-.496094-.222657-.496094-.496094v-.992188c0-.273437.222656-.496094.496094-.496094zm0 0"/><path d="m8.929688 17.550781h5.953124c.277344 0 .496094.222657.496094.496094v.992187c0 .277344-.21875.496094-.496094.496094h-5.953124c-.273438 0-.496094-.21875-.496094-.496094v-.992187c0-.273437.222656-.496094.496094-.496094zm0 0"/><path d="m12.898438 15.566406v5.957032c0 .273437-.222657.496093-.496094.496093h-.992188c-.273437 0-.496094-.222656-.496094-.496093v-5.957032c0-.273437.222657-.496094.496094-.496094h.992188c.273437 0 .496094.222657.496094.496094zm0 0"/></g></svg>

<?xml version="1.0" encoding="UTF-8"?>
<svg xmlns="http://www.w3.org/2000/svg" xmlns:xlink="http://www.w3.org/1999/xlink" width="24px" height="24px" viewBox="0 0 24 24" version="1.1">
<g id="surface1">
<path style=" stroke:none;fill-rule:nonzero;fill:rgb(25.882354%,25.882354%,25.882354%);fill-opacity:1;" d="M 7.9375 2.171875 C 4.640625 2.171875 1.984375 4.828125 1.984375 8.125 C 1.984375 11.425781 4.640625 14.078125 7.9375 14.078125 L 9.425781 14.078125 C 9.703125 14.078125 9.921875 13.859375 9.921875 13.582031 L 9.921875 12.589844 C 9.921875 12.316406 9.703125 12.09375 9.425781 12.09375 L 7.9375 12.09375 C 5.738281 12.09375 3.96875 10.324219 3.96875 8.125 C 3.96875 5.925781 5.738281 4.15625 7.9375 4.15625 L 9.425781 4.15625 C 9.703125 4.15625 9.921875 3.933594 9.921875 3.660156 L 9.921875 2.667969 C 9.921875 2.394531 9.703125 2.171875 9.425781 2.171875 Z M 14.386719 2.171875 C 14.113281 2.171875 13.890625 2.394531 13.890625 2.667969 L 13.890625 3.660156 C 13.890625 3.933594 14.113281 4.15625 14.386719 4.15625 L 15.875 4.15625 C 18.074219 4.15625 19.84375 5.925781 19.84375 8.125 C 19.84375 10.324219 18.074219 12.09375 15.875 12.09375 L 14.386719 12.09375 C 14.113281 12.09375 13.890625 12.316406 13.890625 12.589844 L 13.890625 13.582031 C 13.890625 13.859375 14.113281 14.078125 14.386719 14.078125 L 15.875 14.078125 C 19.175781 14.078125 21.832031 11.425781 21.832031 8.125 C 21.832031 4.828125 19.175781 2.171875 15.875 2.171875 Z M 14.386719 2.171875 "/>
<path style=" stroke:none;fill-rule:nonzero;fill:rgb(25.882354%,25.882354%,25.882354%);fill-opacity:1;" d="M 8.433594 7.132812 L 15.378906 7.132812 C 15.65625 7.132812 15.875 7.355469 15.875 7.628906 L 15.875 8.621094 C 15.875 8.894531 15.65625 9.117188 15.378906 9.117188 L 8.433594 9.117188 C 8.160156 9.117188 7.9375 8.894531 7.9375 8.621094 L 7.9375 7.628906 C 7.9375 7.355469 8.160156 7.132812 8.433594 7.132812 Z M 8.433594 7.132812 "/>
<path style=" stroke:none;fill-rule:nonzero;fill:rgb(25.882354%,25.882354%,25.882354%);fill-opacity:1;" d="M 8.929688 17.550781 L 14.882812 17.550781 C 15.160156 17.550781 15.378906 17.773438 15.378906 18.046875 L 15.378906 19.039062 C 15.378906 19.316406 15.160156 19.535156 14.882812 19.535156 L 8.929688 19.535156 C 8.65625 19.535156 8.433594 19.316406 8.433594 19.039062 L 8.433594 18.046875 C 8.433594 17.773438 8.65625 17.550781 8.929688 17.550781 Z M 8.929688 17.550781 "/>
<path style=" stroke:none;fill-rule:nonzero;fill:rgb(25.882354%,25.882354%,25.882354%);fill-opacity:1;" d="M 12.898438 15.566406 L 12.898438 21.523438 C 12.898438 21.796875 12.675781 22.019531 12.402344 22.019531 L 11.410156 22.019531 C 11.136719 22.019531 10.914062 21.796875 10.914062 21.523438 L 10.914062 15.566406 C 10.914062 15.292969 11.136719 15.070312 11.410156 15.070312 L 12.402344 15.070312 C 12.675781 15.070312 12.898438 15.292969 12.898438 15.566406 Z M 12.898438 15.566406 "/>
</g>
</svg>
